assets/icons/uE002-banknote.svg

<svg xmlns="http://www.w3.org/2000/svg" width="896" height="1232" viewBox="0 0 896 1232"><path d="M490 296q2 3 5.5 10.5T501 318q-17 11-71.5 46.5t-80.5 51-71 37-85 32.5q-2-4-10-22 40-11 84.5-32.5t72-38T419 342t71-46zm401 123q11 25-2 51-15 25-43 28-11 0-23 3l12 25 32 72q13 27-2 51-14 25-43 28-48 5-101 26.5t-86.5 42T541 805q-66 44-104 66.5t-102 48T210 952h-6q-36 0-51-33L63 719 5 589q-12-27 2-51t43-27q16-2 22-4l-43-97q-12-26 2-51t43-28q48-5 101.5-27t85.5-41 94-60q66-44 104-66.5t102-48T686 56h6q36 0 51 33l125 278zM204 896q64-7 129.5-35.5t121-65.5 111-73.5 121-65T816 621q-10-22-29.5-66T757 489q-76 26-208 114-64 42-100.5 64T350 713.5 231 744l-20 3-9-19-79-175q-36 10-67 13 24 55 73.5 165T204 896zm24-179q64-7 129.5-36t121-65.5l111-73 121-65L840 442q-24-55-74-165t-74-165q-64 7-129.5 35.5t-121 65.5-111 73.5-121 65T80 387q98 220 148 330zm426-434h5q47 0 62 33 18 37-26 64l12 27q-5 2-13.5 5.5T682 417l-12-24q-27 10-45 10h-3q-1-5-3-16.5t-3-17.5h3q25 0 44-9 26-10 18-26-5-12-26-12-8 0-12 1-3 0-9 .5t-9 .5q-37 0-49-26-17-39 22-67-2-4-5.5-12.5T587 206q2-1 11.5-4.5T613 196q1 4 4.5 11l5.5 11q15-5 32-5h11q1 5 2.5 15.5T671 245q-1 0-5-.5t-7-.5q-17 0-30 6-22 9-16 24 3 9 31 9h10zM241 592q75-19 171-78l5.5 11 5.5 11q-94 58-171 79-2-4-5.5-11.5T241 592zm-29-64q40-11 85-32.5t71.5-37.5 80-51.5T520 360q2 4 5 11.5t5 11.5q-19 12-71.5 46T379 479.5t-72 38-85 32.5q-1-4-5-11t-5-11z"/></svg>

<?xml version="1.0" encoding="UTF-8" standalone="no"?><svg   xmlns:svg="http://www.w3.org/2000/svg"   xmlns="http://www.w3.org/2000/svg"   version="1.1"   width="896"   height="1232"   viewBox="0 0 896 1232">  <path     d="M490 296Q492 299 495.5 306.5T501 318Q484 329 429.5 364.5T349 415.5T278 452.5T193 485Q191 481 183 463Q223 452 267.5 430.5T339.5 392.5T419 342T490 296zM891 419Q902 444 889 470Q874 495 846 498Q835 498 823 501L835 526L867 598Q880 625 865 649Q851 674 822 677Q774 682 721 703.5T634.5 745.5T541 805Q475 849 437 871.5T335 919.5T210 952H204Q168 952 153 919L63 719L5 589Q-7 562 7 538T50 511Q66 509 72 507L29 410Q17 384 31 359T74 331Q122 326 175.5 304T261 263T355 203Q421 159 459 136.5T561 88.5T686 56H692Q728 56 743 89L868 367zM204 896Q268 889 333.5 860.5T454.5 795T565.5 721.5T686.5 656.5T816 621Q806 599 786.5 555T757 489Q681 515 549 603Q485 645 448.5 667T350 713.5T231 744L211 747L202 728L123 553Q87 563 56 566Q80 621 129.5 731T204 896zM228 717Q292 710 357.5 681T478.5 615.5L589.5 542.5T710.5 477.5T840 442Q816 387 766 277T692 112Q628 119 562.5 147.5T441.5 213T330.5 286.5T209.5 351.5T80 387Q178 607 228 717zM654 283H659Q706 283 721 316Q739 353 695 380L707 407Q702 409 693.5 412.5T682 417L670 393Q643 403 625 403H622Q621 398 619 386.5T616 369H619Q644 369 663 360Q689 350 681 334Q676 322 655 322Q647 322 643 323Q640 323 634 323.5T625 324Q588 324 576 298Q559 259 598 231Q596 227 592.5 218.5T587 206Q589 205 598.5 201.5T613 196Q614 200 617.5 207L623 218Q638 213 655 213H666Q667 218 668.5 228.5T671 245Q670 245 666 244.5T659 244Q642 244 629 250Q607 259 613 274Q616 283 644 283H654zM241 592Q316 573 412 514L417.5 525L423 536Q329 594 252 615Q250 611 246.5 603.5T241 592zM212 528Q252 517 297 495.5T368.5 458T448.5 406.5T520 360Q522 364 525 371.5T530 383Q511 395 458.5 429T379 479.5T307 517.5T222 550Q221 546 217 539T212 528z"     id="icon383" /></svg>
